X:1
T:Prząśniczka
T:Prząśniczka
T:Stanisław Moniuszko
T:Jan Czeczot
C:Stanisław Moniuszko
Z:Jan Czeczot
L:1/8
M:2/4
K:F
V:1 treble nm="Piano" snm="Pno."
V:1
 D3/2 D/ F G | A2 D D | B2 A G | A3 A | A3/2 E/ A E | F2 D F | A2 E E | F3 A | c3/2 B/ A G | F3 F | %10
w: U przą- śni- czki|sie- dzą jak|a- nioł dzie-|we- czki,|przę- dą so- bie,|przę- dą je-|dwa- bne ni-|te- czki.|Kręć się, kręć wrze-|cio- no,|
 G3/2 G/ E C | A3 z | A3/2 B/ A ^G | A2 d2 | B G E A | D2 z2 |] %16
w: wić się to- bie|wić!|Ta pa mię- ta|le- piej,|czy- ja dłu- ższa|nić!|

